volleyball.svg

<svg fill="currentColor" viewBox="0 0 24 24"><path d="M19.04 4.85C17.34 3.2 15.33 2.25 13 2v3.62l9 5.18c-.28-2.3-1.27-4.3-2.96-5.95M12 22c3.44 0 6.16-1.38 8.17-4.14L17.06 16l-8.99 5.2c1.25.53 2.57.8 3.93.8m1-10.59 8.15 4.66c.44-.94.73-1.93.85-2.96l-9-5.18zm-9.12 6.4c.66.91 1.38 1.65 2.17 2.19l8.99-5.1L12 13.15zM11.04 2C10 2.09 9 2.36 8 2.8v10.35l3.04-1.74zM2 12c0 1.39.3 2.77.89 4.12L6 14.28V4c-2.67 2-4 4.65-4 8"/></svg>

<svg  viewBox="0 0 24 24" fill="currentColor"><path  d="M19.04 4.85C17.34 3.2 15.33 2.25 13 2V5.62L22 10.8C21.72 8.5 20.73 6.5 19.04 4.85M12 22C15.44 22 18.16 20.62 20.17 17.86L17.06 16L8.07 21.2C9.32 21.73 10.64 22 12 22M13 11.41L21.15 16.07C21.59 15.13 21.88 14.14 22 13.11L13 7.93V11.41M3.88 17.81C4.54 18.72 5.26 19.46 6.05 20L15.04 14.9L12 13.15L3.88 17.81M11.04 2C10 2.09 9 2.36 8 2.8V13.15L11.04 11.41V2M2 12C2 13.39 2.3 14.77 2.89 16.12L6 14.28V4C3.33 6 2 8.65 2 12Z"/></svg>
